frontend/public/svg/interface/phone.svg

<svg width="102" height="167" viewBox="0 0 102 167" fill="none" xmlns="http://www.w3.org/2000/svg">
<g clip-path="url(#clip0)">
<path d="M101.184 92.9296C101.184 108.655 101.212 124.381 101.161 140.107C101.174 143.339 100.986 146.568 100.599 149.777C100.406 151.699 99.7912 153.554 98.7994 155.211C95.8859 159.626 91.4186 163.185 86.0669 164.303C81.7627 165.283 77.3796 165.876 72.9693 166.075C58.0967 166.456 43.216 166.566 28.3373 166.67C25.3319 166.691 22.3194 166.261 19.3153 165.982C10.9394 165.205 6.56723 159.737 4.25589 152.43C3.1028 148.783 2.88592 144.824 2.40423 140.986C0.720897 127.58 1.08735 114.11 1.25828 100.647C1.39855 89.554 1.51594 78.4608 1.61046 67.3676C1.70369 54.6576 1.60464 41.9441 1.87333 29.2385C1.97022 24.9402 2.53929 20.6656 3.57026 16.4916C5.47696 8.77915 10.8507 4.81055 18.5817 3.25318C36.5345 -0.362565 54.6122 0.123124 72.7232 1.0727C79.1328 1.40864 84.8769 3.69786 90.2202 7.16411C93.998 9.5781 96.7774 13.2737 98.0477 17.5719C99.0778 21.0794 99.7122 24.6912 99.9388 28.3396C100.544 39.8437 100.972 51.3567 101.224 62.8788C101.429 72.8916 101.267 82.9122 101.267 92.9296H101.184ZM12.5826 132.038C38.9965 129.705 65.5225 128.889 92.0298 129.594C92.1068 128.244 92.213 127.191 92.2195 126.137C92.3839 100.613 91.8957 74.4418 92.033 48.9153C92.044 47.6254 91.9579 46.3364 91.774 45.0595C90.9117 39.2086 90.7129 34.0013 89.7171 28.1731C89.2607 25.6451 88.6398 23.1495 87.8583 20.7021C87.4576 19.4148 86.7739 18.2334 85.8578 17.2441C84.9416 16.2548 83.8158 15.4825 82.5623 14.984C78.936 13.3043 75.0009 12.3923 71.0049 12.3051C66.8005 12.228 62.5886 12.2784 58.3926 12.0829C45.7294 11.4926 33.2073 12.6188 20.7299 14.7277C16.7579 15.3989 14.5877 17.5524 13.748 21.2814C13.4089 22.7497 13.1924 24.2435 13.1005 25.7476C12.9471 28.542 12.8921 31.3436 12.8726 34.1425C12.7103 57.8332 12.5567 81.5257 12.4117 105.219C12.3663 112.111 12.2673 119.002 12.2498 125.894C12.2492 127.798 12.4512 129.703 12.5826 132.038ZM91.5837 137.029L12.949 137.956C13.4625 142.876 13.2235 147.412 14.6201 151.727C15.6929 155.041 17.9913 157.155 21.7367 157.218C23.1371 157.242 24.5355 157.353 25.9353 157.359C30.4615 157.375 34.9871 157.366 39.5133 157.359C51.6903 157.341 63.8686 157.41 76.0426 157.24C79.2649 157.173 82.4671 156.717 85.5794 155.88C88.4475 155.124 91.1564 153.314 91.4794 150.139C91.9016 146.004 91.5837 141.795 91.5837 137.03V137.029Z" fill="black"/>
<path d="M59.2337 146.565C59.224 150.018 55.9538 153.02 52.1229 153.092C51.2861 153.114 50.4536 152.967 49.6754 152.658C48.8972 152.35 48.1894 151.888 47.5946 151.299C46.9998 150.71 46.5303 150.007 46.2143 149.232C45.8984 148.457 45.7425 147.626 45.7561 146.789C45.8134 144.997 46.5481 143.292 47.8124 142.02C49.0766 140.747 50.7764 140.001 52.569 139.932C55.9299 139.889 59.2415 143.187 59.2337 146.565Z" fill="black"/>
</g>
<defs>
<clipPath id="clip0">
<rect width="101" height="167" fill="white" transform="translate(0.777344)"/>
</clipPath>
</defs>
</svg>

<svg xmlns="http://www.w3.org/2000/svg" width="102" height="167" fill="none" viewBox="0 0 102 167"><g fill="#000" clip-path="url(#a)"><path d="M101.184 92.93c0 15.725.028 31.451-.023 47.177a78 78 0 0 1-.562 9.67 13.1 13.1 0 0 1-1.8 5.434c-2.913 4.415-7.38 7.974-12.732 9.092a74 74 0 0 1-13.098 1.772c-14.872.381-29.753.491-44.632.595-3.005.021-6.018-.409-9.022-.688-8.376-.777-12.748-6.245-15.06-13.552-1.152-3.647-1.37-7.606-1.85-11.444C.72 127.58 1.086 114.11 1.257 100.647q.21-16.64.352-33.28c.094-12.71-.005-25.423.263-38.128A58.7 58.7 0 0 1 3.57 16.492C5.477 8.779 10.85 4.81 18.582 3.253c17.953-3.616 36.03-3.13 54.141-2.18 6.41.336 12.154 2.625 17.497 6.091a18.6 18.6 0 0 1 7.828 10.408 49 49 0 0 1 1.89 10.768 1126 1126 0 0 1 1.286 34.539c.205 10.013.043 20.033.043 30.05zm-88.601 39.108a693 693 0 0 1 79.447-2.444c.077-1.35.183-2.403.19-3.457.164-25.524-.324-51.695-.187-77.222a25.5 25.5 0 0 0-.259-3.855c-.862-5.851-1.061-11.059-2.057-16.887a59 59 0 0 0-1.859-7.47 9.05 9.05 0 0 0-5.296-5.719 29 29 0 0 0-11.557-2.679c-4.204-.077-8.416-.027-12.612-.222-12.664-.59-25.186.536-37.663 2.645-3.972.67-6.142 2.824-6.982 6.553a27 27 0 0 0-.647 4.467c-.154 2.794-.209 5.596-.228 8.394q-.244 35.537-.461 71.077c-.046 6.892-.145 13.783-.162 20.675 0 1.904.201 3.809.333 6.144m79 4.991-78.634.927c.514 4.92.274 9.456 1.671 13.771 1.073 3.314 3.371 5.428 7.117 5.491 1.4.024 2.799.135 4.198.141 4.527.016 9.052.007 13.578 0 12.177-.018 24.356.051 36.53-.119a40 40 0 0 0 9.536-1.36c2.869-.756 5.577-2.566 5.9-5.741.423-4.135.105-8.344.105-13.109z"/><path d="M59.234 146.565c-.01 3.453-3.28 6.455-7.111 6.527a6.2 6.2 0 0 1-6.367-6.303 7.087 7.087 0 0 1 6.813-6.857c3.36-.043 6.672 3.255 6.665 6.633"/></g><defs><clipPath id="a"><path fill="#fff" d="M.777 0h101v167h-101z"/></clipPath></defs></svg>
